public/images/case-studies/megalot/feature5.svg

<svg width="64" height="62" viewBox="0 0 64 62" fill="none" xmlns="http://www.w3.org/2000/svg">
<path fill-rule="evenodd" clip-rule="evenodd" d="M32.0793 31.8929C40.1959 31.8929 46.7757 25.3131 46.7757 17.1965C46.7757 9.07983 40.1959 2.5 32.0793 2.5C23.9626 2.5 17.3828 9.07983 17.3828 17.1965C17.3828 25.3131 23.9626 31.8929 32.0793 31.8929ZM32.0793 34.3929C41.5766 34.3929 49.2757 26.6938 49.2757 17.1965C49.2757 7.69912 41.5766 0 32.0793 0C22.5819 0 14.8828 7.69912 14.8828 17.1965C14.8828 26.6938 22.5819 34.3929 32.0793 34.3929Z" fill="#7F8284"/>
<path d="M26.4984 27.0451L37.8853 27.0451C38.3393 27.0451 38.747 26.628 38.747 26.1325V24.998C38.7361 21.5581 36.1726 18.7792 33.0209 18.7908L31.3625 18.7908C28.2303 18.7827 25.6851 21.548 25.6777 24.9671L25.6777 26.1325C25.6758 26.6305 26.0418 27.0377 26.4984 27.0451ZM27.3217 24.998C27.3236 22.5626 29.1313 20.5884 31.3625 20.5852L33.0209 20.5852C35.2498 20.5852 37.1031 22.565 37.1031 24.998V25.2507L27.3217 25.2507V24.998Z" fill="#FF6B00"/>
<path d="M32.2121 17.4151C34.6816 17.4151 36.6834 15.4133 36.6834 12.9438C36.6834 10.4747 34.6816 8.4729 32.2121 8.4729C29.743 8.4729 27.7412 10.4747 27.7412 12.9438C27.7412 15.4133 29.743 17.4151 32.2121 17.4151ZM32.2121 10.2681C33.69 10.2681 34.8881 11.4659 34.8881 12.9438C34.8881 14.4217 33.69 15.6198 32.2121 15.6198C30.7342 15.6198 29.5364 14.4217 29.5364 12.9438C29.5364 11.4659 30.7342 10.2681 32.2121 10.2681Z" fill="#FF6B00"/>
<path fill-rule="evenodd" clip-rule="evenodd" d="M2.5 45.9135L2.5 58.6484L15.2349 58.6484L15.2349 45.9135L2.5 45.9135ZM0 61.1484L17.7349 61.1484L17.7349 43.4135L-7.75219e-07 43.4135L0 61.1484Z" fill="#7F8284"/>
<path fill-rule="evenodd" clip-rule="evenodd" d="M13.0448 51.0602L8.09673 56.0083L5.46191 53.3735L6.87613 51.9592L8.09673 53.1799L11.6306 49.646L13.0448 51.0602Z" fill="#FF6B00"/>
<path fill-rule="evenodd" clip-rule="evenodd" d="M25.6318 45.9135L25.6318 58.6484L38.3668 58.6484L38.3668 45.9135L25.6318 45.9135ZM23.1318 61.1484L40.8668 61.1484L40.8668 43.4135L23.1318 43.4135L23.1318 61.1484Z" fill="#7F8284"/>
<path fill-rule="evenodd" clip-rule="evenodd" d="M36.1766 51.0605L31.2286 56.0085L28.5938 53.3737L30.008 51.9595L31.2286 53.1801L34.7624 49.6462L36.1766 51.0605Z" fill="#FF6B00"/>
<path fill-rule="evenodd" clip-rule="evenodd" d="M48.7656 45.9135L48.7656 58.6484L61.5006 58.6484L61.5006 45.9135L48.7656 45.9135ZM46.2656 61.1484L64.0006 61.1484L64.0006 43.4135L46.2656 43.4135L46.2656 61.1484Z" fill="#7F8284"/>
<path fill-rule="evenodd" clip-rule="evenodd" d="M59.3104 51.0605L54.3624 56.0085L51.7275 53.3737L53.1418 51.9595L54.3624 53.1801L57.8962 49.6462L59.3104 51.0605Z" fill="#FF6B00"/>
<path fill-rule="evenodd" clip-rule="evenodd" d="M9.19336 40.2695L9.19336 43.646L6.69336 43.646L6.69336 37.7695L56.2295 37.7695L56.2295 43.646L53.7295 43.646L53.7295 40.2695L9.19336 40.2695Z" fill="#7F8284"/>
<path fill-rule="evenodd" clip-rule="evenodd" d="M33.0967 34.0075L33.0967 39.0195L30.5967 39.0195L30.5967 34.0075L33.0967 34.0075Z" fill="#7F8284"/>
</svg>

<svg xmlns="http://www.w3.org/2000/svg" xmlns:xlink="http://www.w3.org/1999/xlink" width="64" height="62" fill="none" xmlns:v="https://vecta.io/nano"><path fill-rule="evenodd" d="M32.079 31.893a14.7 14.7 0 0 0 14.696-14.696A14.7 14.7 0 0 0 32.079 2.5a14.7 14.7 0 0 0-14.697 14.697 14.7 14.7 0 0 0 14.697 14.696zm0 2.5a17.2 17.2 0 0 0 17.196-17.196A17.2 17.2 0 0 0 32.079 0a17.2 17.2 0 0 0-17.197 17.197 17.2 17.2 0 0 0 17.197 17.196z" fill="#7f8284"/><path d="M26.498 27.045h11.387c.454 0 .862-.417.862-.913v-1.134c-.011-3.44-2.574-6.219-5.726-6.207h-1.658c-3.132-.008-5.677 2.757-5.685 6.176v1.165c-.002.498.364.905.821.913zm.823-2.047c.002-2.435 1.81-4.41 4.041-4.413h1.658c2.229 0 4.082 1.98 4.082 4.413v.253h-9.781v-.253zm4.891-7.583a4.471 4.471 0 1 0 0-8.942 4.471 4.471 0 0 0 0 8.942zm0-7.147c1.478 0 2.676 1.198 2.676 2.676s-1.198 2.676-2.676 2.676-2.676-1.198-2.676-2.676 1.198-2.676 2.676-2.676z" fill="#ff6b00"/><g fill-rule="evenodd"><path d="M2.5 45.914v12.735h12.735V45.914H2.5zM0 61.148h17.735V43.414H0v17.735z" fill="#7f8284"/><use xlink:href="#B" fill="#ff6b00"/><path d="M25.632 45.914v12.735h12.735V45.914H25.632zm-2.5 15.235h17.735V43.414H23.132v17.735z" fill="#7f8284"/><use xlink:href="#B" x="23.132" y="0.001" fill="#ff6b00"/><path d="M48.766 45.914v12.735h12.735V45.914H48.766zm-2.5 15.235h17.735V43.414H46.266v17.735z" fill="#7f8284"/><use xlink:href="#B" x="46.265" y="0.001" fill="#ff6b00"/><g fill="#7f8284"><path d="M9.193 40.27v3.377h-2.5V37.77H56.23v5.877h-2.5V40.27H9.193z"/><path d="M33.097 34.008v5.012h-2.5v-5.012h2.5z"/></g></g><defs ><path id="B" d="M13.045 51.06l-4.948 4.948-2.635-2.635 1.414-1.414 1.221 1.221 3.534-3.534 1.414 1.414z"/></defs></svg>
